X:338
T:Old Joe Clark
C:
N:Transcribed by Rod B.
R:bluegrass
L:1/8
Q:1/4=240
M:4/4
K:A
z6 cd |: "A"ea fa =ge fa | ec de cA cd | ea fa =ge fd | "E"eA ce eA cd | "A"ea fa =ge fa | 
ec de [e2c2] [e2A2] | [eA][eA] cA "E"BA GB |1 "A"[e2A2] ae cA cd :|2 "A"[e2A2] ae ce Ee | 
|: "A"[e2A2] (3EFA AB cd | [e2A2] de ce Be | [e2A2] ae (3=cBe ^ce | "G"=GB dB de Be | 
"A"[e2A2] (3EFA AB cd | [e2A2] [e2d2] ce Be | [e2A2] cA "E"BA GB |1 "A"A2 ae cA Ee :|2 "A"[e8A8] | 


